X:52
T:The clairty Cook of Torwoodlee
% lots of truncated notes
T:the same as Elsey Marlie
Z:Jack Campin - http://www.campin.me.uk
S:Blaikie MS (NLS MS.1578) p17, Blaikie #50
M:6/8
L:1/8
V:1 midi program 1 74
V:2 midi program 1 46 bass middle = d transpose -24
Q:3/8=112
K:D Mixolydian
[V:1] A|F2D D2D|D2d d2A|F2D DDD|ECE c2A|
[V:2] z|D3  d3 |D3  d3 |d3  f2d|c3  c3 |
%
[V:1]   F2D D2D|D2D d3 |G2G AGF|E2c c2||
[V:2]   d3  d3 |f3  f3 |g3  d3 |c3  c2||
%
[V:1] A|FGA A2A|A2d d2A|FGA A2F|E2c c2A|
[V:2] z|D3  d3 |f3  d3 |D3  d3 |c3  c3 |
%
[V:1]   F2A A2A|ABc d2A|GAG F2D|E2c c2|]
[V:2]   d3  f3 |a3  f2d|B2c d2d|c3  c2|]
W:Transcription (c) Jack Campin 2009, no mirroring or republication without permission

